X:1
T:Indy's Favorite -- Reel
R:reel
N:AKA The Maid Behind the Bar
N:326
B:Ryan's Mammoth Collection
Z:Contributed by Ray Davies,  ray:davies99.freeserve.co.uk
M:2/4
L:1/16
K:D
vFAAB AFED | FAAB ABde | fBBA Bcdf | fBBA BcdB |
FAAB AFED | FAAB ABde | fBBA BddB | AFEF D2z2 :|
|:ug2|\
fgag fd"4"{e}d2 | fdad fe{e}d2 | vefga bgef | gebe geeg |
fdad bdad | defd edBd | fBBA BcdB |1 AFEF D2 :|2 AFEF D2z2 |]
